#N Backward space rake
#O Bill Gosper, 1971
#C SPDX-License-Identifier: CC0-1.0
#C SPDX-FileCopyrightText: none claimed (configuration; see SOURCES.md §2)
#C source: https://conwaylife.com/wiki/Space_rake
#C verified: fancy-gol P2-B-5, grows; p20 backward glider rake
#C ruleset: conway
#C category: rake
#C period: 20
#C tags: rake, conway
#C description: The same engine, firing over its shoulder. Gliders
#C description: peel backward while the rake keeps going.
x = 32, y = 21, rule = B3/S23
18bo2bo$22bo6b2o$18bo3bo4b2ob2o$19b4o4b4o$28b2o2$20bo$18bo4bo3bo$10b2o
b2o3bo3bo4b2o$10bo2bo8bo5b2o$11b3o13b2o$16bo2bo$17b2o3$o28b2o$obo24b2o
b2o$2o9b2o14b4o$9b2ob2o14b2o$9b4o$10b2o!
