#N Beacon pair 10
#O fancy-gol, 2026
#C SPDX-License-Identifier: CC0-1.0
#C SPDX-FileCopyrightText: originated in fancy-gol P2-B-5 (CC0)
#C source: https://conwaylife.com/wiki/Beacon
#C verified: fancy-gol P2-B-5, period 2 two-beacon constellation
#C ruleset: conway
#C category: oscillator
#C period: 2
#C tags: oscillator, conway, constellation
#C description: Two beacons offset by 10. Each blinks at the other
#C description: from a polite distance.
x = 16, y = 14, rule = B3/S23
2o$2o$2b2o$2b2o7$12b2o$12b2o$14b2o$14b2o!
