#N Block agar
#O unknown, 1970
#C SPDX-License-Identifier: CC0-1.0
#C SPDX-FileCopyrightText: none claimed (configuration; see SOURCES.md §2)
#C source: https://conwaylife.com/wiki/Agar
#C verified: fancy-gol P2-B-5, period 1 block lattice
#C ruleset: conway
#C category: agar
#C period: 1
#C tags: agar, conway
#C description: A finite patch of the block lattice. Every tile is a
#C description: still life; together they are the dullest infinite
#C description: wallpaper Life has.
x = 10, y = 10, rule = B3/S23
2o2b2o2b2o$2o2b2o2b2o3$2o2b2o2b2o$2o2b2o2b2o3$2o2b2o2b2o$2o2b2o2b2o!
