#N Block pair 10×10
#O fancy-gol, 2026
#C SPDX-License-Identifier: CC0-1.0
#C SPDX-FileCopyrightText: originated in fancy-gol P2-B-5 (CC0)
#C source: https://conwaylife.com/wiki/Constellation
#C verified: fancy-gol P2-B-5, period 1 two-block constellation
#C ruleset: conway
#C category: still-life
#C period: 1
#C tags: still-life, conway, constellation
#C description: Two blocks 10 cells across and 10 down. Far enough
#C description: that they never shake hands.
x = 12, y = 12, rule = B3/S23
2o$2o9$10b2o$10b2o!
