#N Colour-changing reflector
#O unknown, 2013
#C SPDX-License-Identifier: CC0-1.0
#C SPDX-FileCopyrightText: none claimed (configuration; see SOURCES.md §2)
#C source: https://conwaylife.com/book/stationary_circuitry
#C verified: fancy-gol P2-B-5, stable colour-changing reflector
#C ruleset: conway
#C category: reflector
#C period: none
#C tags: reflector, conway
#C description: A syringe welded to a Snark. Gliders leave on the
#C description: other colour. The still-life waiting room of a
#C description: 90-degree bounce.
x = 52, y = 30, rule = B3/S23
10b2o11bo$10b2o10bobo$22bobo2b2o3bo$21b2ob2o2bo2bobo$25bobo3bobo$21b2o
bo2b4obo$21b2obobo3bo$25bobo3bo$26bobo3bo$27bo3b2o2$46b2o$46bo$14b2o2b
2o24bobo$15b2ob2o24b2o4b2o$3b2o9bo35bo$2bo2bo42bobo$bob2o43b2o$bo$2o$
15b2o$15bo32b2o$16b3o29bobo$18bo10b2o19bo$28bobo19b2o$28bo$27b2o10b2o$
40bo$37b3o$37bo!
