#N Glider
#O Richard K. Guy, 1970
#C SPDX-License-Identifier: CC0-1.0
#C SPDX-FileCopyrightText: none claimed (configuration; see SOURCES.md §2)
#C source: https://conwaylife.com/wiki/Glider
#C verified: fancy-gol P2-B-1, period 4, displaces (1,1), population 5
#C ruleset: conway
#C category: spaceship
#C period: 4
#C speed: c/4 diagonal
#C aliases: featherweight spaceship
#C tags: spaceship, conway, staple
#C description: Five cells that walk diagonally one cell every four
#C description: generations. The smallest spaceship, and the one that
#C description: made Life famous.
x = 3, y = 3, rule = B3/S23
bo$2bo$3o!
