#N Gosper glider gun
#O Bill Gosper, 1970
#C SPDX-License-Identifier: CC0-1.0
#C SPDX-FileCopyrightText: none claimed (configuration; see SOURCES.md §2)
#C source: https://conwaylife.com/wiki/Gosper_glider_gun
#C verified: fancy-gol P2-B-1, period 30, emits glider every 30 gens
#C ruleset: conway
#C category: gun
#C period: 30
#C tags: gun, conway, staple
#C description: Two queen-bee shuttles back-to-back. Every 30
#C description: generations a glider leaves, and population never
#C description: looks back.
x = 36, y = 9, rule = B3/S23
24bo$22bobo$12b2o6b2o12b2o$11bo3bo4b2o12b2o$2o8bo5bo3b2o$2o8bo3bob2o4bobo$10bo5bo7bo$11bo3bo$12b2o!
