#N Highlands banding soup
#O fancy-gol, 2026
#C SPDX-License-Identifier: CC0-1.0
#C SPDX-FileCopyrightText: originated in fancy-gol P2-B-5 (CC0)
#C source: https://conwaylife.com/wiki/
#C verified: fancy-gol P2-B-5, Mulberry32(0x51eed) 32×32 documented soup
#C ruleset: highlands-liquid
#C category: seed
#C period: none
#C tags: seed, highlands-liquid, terrain, documented-soup
#C description: The documented 32×32 banding soup from the Highlands /
#C description: Liquid rule comments. Void, liquid and highland at
#C description: 1/4, 3/8, 3/8 — the seed that settles into shorelines.
x = 32, y = 32, rule = Highlands/Liquid
BA2.A2B2.AB2A5B.A.A4B2AB2AB$2A2.3BABAB2AB2AB.A.A.AB.A.A.A.B$.BABAB.A.
3A2.2A2BA2BA.A.B3.2BA$A.B2.B2A2BA3B.BABABABA3B.BAB2A$B.A2B.A2B2.BAB2A
2B2A3.B.B.3A.B$2A4BA2B.3BAB2A2.4BA.AB.B3A$3A.BA.B2A2B3A.B.2B.AB.B.3A.
2A$4BABA4B2A.B.B2.AB.A2BA.A.2AB$A.BA.2B.3A.4A2BAB.BABAB2.2A.B$AB3.2A.A
2.B2.ABA2.A.3AB3A.A.A$2A2B.AB2AB4.3BA.A.2AB.2ABA.2A$.A2B3A3.3BA2B4A.4A
2.2A3B$4BA2B.2AB2.B.2BAB2A.A3.A.AB.A$A5B3A.A.2AB.ABA3B.BA.AB2A2B$AB2.A
B2.B3A.B2AB3AB.BA2BA3B2A$2BAB.ABA2.2A.AB.BABA3B3AB.BA$AB2A.BA2B2.B.B2.
6B3A.2A.B.A$2A.2B.2BAB2ABABAB2A4B2.A.BAB2A$B2.B2.5BABA.BAB5A.B3A3BA$BA
2B.A3B.2A2.A.B.A.A2B.2BABAB2A$2A.A2.A2.BA.AB3AB.2AB.AB.BA.2BA$.BA.B3A.
A.2A.B2.B2A2B.BA.2ABA.A$B3AB3A.A.B.2B.BA2.BA.A2B3A.AB$A2BAB.2AB2.2BA.B
2.2ABAB2ABA2BA2B$4B.3A2.B.2B2A.A.4A.BA.BA.B$BA.3BAB.BABA.BAB2A3BA3.B.
2B.B$ABA.2A2BABA3B.3ABA3.A.ABABAB$.B.BA.B.A2.BA4BA.3B3AB.2A3B$2B.3A.3B
3.B.B2A2BA.3A3B.2BA$2.A.2A2BA2.ABA4B.B2.3A2B.2B.B$B.A.2A3.3B.2BAB.ABA.
6BA2.B$2A3B2.A.3B2A.2B.3BA3.2A3B!
