#N Honey farm
#O unknown, 1970
#C SPDX-License-Identifier: CC0-1.0
#C SPDX-FileCopyrightText: none claimed (configuration; see SOURCES.md §2)
#C source: https://conwaylife.com/wiki/Honey_farm
#C verified: fancy-gol P2-B-5, period 1, four beehives
#C ruleset: conway
#C category: still-life
#C period: 1
#C tags: still-life, conway, constellation
#C description: Four beehives around an empty centre. A common ash of
#C description: the traffic-light reaction.
x = 14, y = 11, rule = B3/S23
6b2o$5bo2bo$6b2o2$b2o8b2o$o2bo6bo2bo$b2o8b2o2$6b2o$5bo2bo$6b2o!
