#N Integral
#O unknown, 1970
#C SPDX-License-Identifier: CC0-1.0
#C SPDX-FileCopyrightText: none claimed (configuration; see SOURCES.md §2)
#C source: https://conwaylife.com/wiki/Integral_sign
#C verified: fancy-gol P2-B-1, period 1, population 9
#C ruleset: conway
#C category: still-life
#C period: 1
#C heat: 0
#C aliases: integral sign
#C tags: still-life, conway
#C description: Nine cells in an ∫-shape. A still life named for a joke
#C description: about calculus, not for any calculus it performs.
x = 5, y = 5, rule = B3/S23
2o$obo$2bo$2bobo$3b2o!
