#N Lidka
#O Andrzej Okrasinski, 1991
#C SPDX-License-Identifier: CC0-1.0
#C SPDX-FileCopyrightText: none claimed (configuration; see SOURCES.md §2)
#C source: https://conwaylife.com/wiki/Lidka
#C verified: fancy-gol P2-B-5, classic long-lived methuselah
#C ruleset: conway
#C category: methuselah
#C period: none
#C tags: methuselah, conway
#C description: A small seed that takes thousands of generations to
#C description: settle. Lidka is the patience test of the methuselah
#C description: shelf.
x = 6, y = 12, rule = B3/S23
o$b3o$3bo7$3b3o$2bo2bo$3b2o!
