#N Long ship
#O unknown, 1970
#C SPDX-License-Identifier: CC0-1.0
#C SPDX-FileCopyrightText: none claimed (configuration; see SOURCES.md §2)
#C source: https://conwaylife.com/wiki/Long_ship
#C verified: fancy-gol P2-B-1, period 1, population 8
#C ruleset: conway
#C category: still-life
#C period: 1
#C heat: 0
#C tags: still-life, conway
#C description: A ship with an extra row. Eight cells of still life,
#C description: one longer than the namesake.
x = 4, y = 4, rule = B3/S23
2o$obo$bobo$2b2o!
