#N Pi-heptomino
#O John H. Conway, 1970
#C SPDX-License-Identifier: CC0-1.0
#C SPDX-FileCopyrightText: none claimed (configuration; see SOURCES.md §2)
#C source: https://conwaylife.com/wiki/Pi-heptomino
#C verified: fancy-gol P2-B-1, seven cells
#C ruleset: conway
#C category: methuselah
#C period: none
#C aliases: pi
#C tags: methuselah, conway, heptomino
#C description: Seven cells in a pi shape. A short-lived methuselah
#C description: and a common spark in larger machinery.
x = 3, y = 3, rule = B3/S23
3o$o$3o!
