#N Pulsar
#O John H. Conway, 1970
#C SPDX-License-Identifier: CC0-1.0
#C SPDX-FileCopyrightText: none claimed (configuration; see SOURCES.md §2)
#C source: https://conwaylife.com/wiki/Pulsar
#C verified: fancy-gol P2-B-1, period 3, population 48
#C ruleset: conway
#C category: oscillator
#C period: 3
#C tags: oscillator, conway, staple
#C description: Forty-eight cells in four-fold symmetry, breathing on
#C description: a 13×13 stage every three generations.
x = 13, y = 13, rule = B3/S23
2b3o3b3o2$o4bobo4bo$o4bobo4bo$o4bobo4bo$2b3o3b3o2$2b3o3b3o$o4bobo4bo$o4bobo4bo$o4bobo4bo2$2b3o3b3o!
