#N Queen bee shuttle
#O Bill Gosper, 1970
#C SPDX-License-Identifier: CC0-1.0
#C SPDX-FileCopyrightText: none claimed (configuration; see SOURCES.md §2)
#C source: https://conwaylife.com/wiki/Queen_bee_shuttle
#C verified: fancy-gol P2-B-1, period 30, population 20
#C ruleset: conway
#C category: oscillator
#C period: 30
#C tags: oscillator, conway, shuttle
#C description: A queen-bee spark bounces between two blocks every 30
#C description: generations. The oscillator that taught guns to exist.
x = 22, y = 7, rule = B3/S23
9bo$7bobo$6bobo$2o3bo2bo11b2o$2o4bobo11b2o$7bobo$9bo!
