#N Seeds cluster 2
#O fancy-gol, 2026
#C SPDX-License-Identifier: CC0-1.0
#C SPDX-FileCopyrightText: originated in fancy-gol P2-B-5 (CC0)
#C source: https://conwaylife.com/wiki/OCA:Seeds
#C verified: fancy-gol P2-B-5, unique seed for this ruleset
#C ruleset: seeds
#C category: seed
#C period: none
#C tags: seed, seeds
#C description: A Seeds fuse with a unique barcode. Every live cell
#C description: dies; the next generation is born from pairs.
x = 7, y = 5, rule = B2/S
2obo$b3o$3ob3o$bo4bo$3ob3o!
