#N Ship tie
#O unknown, 1970
#C SPDX-License-Identifier: CC0-1.0
#C SPDX-FileCopyrightText: none claimed (configuration; see SOURCES.md §2)
#C source: https://conwaylife.com/wiki/Ship_tie
#C verified: fancy-gol P2-B-1, period 1, population 12
#C ruleset: conway
#C category: still-life
#C period: 1
#C heat: 0
#C tags: still-life, conway
#C description: Two ships sharing a side. Twelve cells, one object — a
#C description: still-life siamese, not a collision in progress.
x = 6, y = 6, rule = B3/S23
2o$obo$b2o$3b2o$3bobo$4b2o!
