#N Very long ship
#O unknown, 1970
#C SPDX-License-Identifier: CC0-1.0
#C SPDX-FileCopyrightText: none claimed (configuration; see SOURCES.md §2)
#C source: https://conwaylife.com/wiki/Very_long_ship
#C verified: fancy-gol P2-B-1, period 1, population 10
#C ruleset: conway
#C category: still-life
#C period: 1
#C heat: 0
#C tags: still-life, conway
#C description: A ship stretched twice. Ten cells of still life on a 5×5
#C description: diamond — the long-ship ladder's next rung.
x = 5, y = 5, rule = B3/S23
2o$obo$bobo$2bobo$3b2o!
