#N WireWorld crossover
#O fancy-gol, 2026
#C SPDX-License-Identifier: CC0-1.0
#C SPDX-FileCopyrightText: originated in fancy-gol P2-B-5 (CC0)
#C source: https://en.wikipedia.org/wiki/Wireworld
#C verified: fancy-gol P2-B-5, plus crossing
#C ruleset: wireworld
#C category: logic
#C period: none
#C tags: logic, wireworld
#C description: A plus-shaped crossing. Electrons that arrive on one
#C description: axis leave on the same axis if the timing is kind.
x = 5, y = 5, rule = WireWorld
2.C$2.C$5C$2.C$2.C!
