#N Zebra stripes
#O unknown, 1970
#C SPDX-License-Identifier: CC0-1.0
#C SPDX-FileCopyrightText: none claimed (configuration; see SOURCES.md §2)
#C source: https://conwaylife.com/wiki/Zebra_stripes
#C verified: fancy-gol P2-B-5, stable stripe agar (finite patch edges may fray — interior is the agar)
#C ruleset: conway
#C category: agar
#C period: 1
#C tags: agar, conway
#C description: Alternating live and dead rows. In the infinite agar
#C description: the stripes are immortal; this patch shows the weave.
x = 8, y = 7, rule = B3/S23
8o2$8o2$8o2$8o!
